!!!!SEGMENT: pl-cz--i-33--004_haydn-joseph--partita-es-presto.krn
!!!cenid: 17xx:2180
!!!COM: Haydn, Joseph
!!!COM-rismid: pe55803
!!!CDT: 1732/03/31-1809/05/31
!!!CNT: Austrian
!!!OPR: Partita Es
!!!OTL: Presto
!!!OMV: 004
!!!PDT:
!!!AGN: Secular
!!!SMS-siglum: PL-CZ
!!!SMS-shelfmark: I-33
!!!SMS-shelfwork: 001-004 M
!!!SMS-variant:
!!!SMS-altvar:
!!!NIFC-rismid: 300000454
!!!URL-scan: http://repozytorium.nifc.pl/skany/pl-cz-nut--i-33
!!!ONB-nifc: UWAGA: części Partity: 1. Moderato, 2. Menuetto, 3. Adagio, 4. Presto
!!!key:
**kern	**dynam	**kern	**dynam	**kern	**dynam	**kern	**dynam	**kern	**dynam
*part5	*part5	*part4	*part4	*part3	*part3	*part2	*part2	*part1	*part1
*staff5	*	*staff4	*	*staff3	*	*staff2	*	*staff1	*
*Iempty	*	*Iempty	*	*Ifagot	*	*Iclars	*	*Iclars	*
*I"Cornuo 2do in Dis	*	*I"Cornuo Primo in Dis	*	*I"Fagotto	*	*I"Clarinetto Secundo	*	*I"Clarinetto Primo	*
*I'cor 2	*	*I'cor 1	*	*I'fag	*	*I'cl 2	*	*I'cl 1	*
*>[A,A,B,B]	*>[A,A,B,B]	*>[A,A,B,B]	*>[A,A,B,B]	*>[A,A,B,B]	*>[A,A,B,B]	*>[A,A,B,B]	*>[A,A,B,B]	*>[A,A,B,B]	*>[A,A,B,B]
*>A	*>A	*>A	*>A	*>A	*>A	*>A	*>A	*>A	*>A
*clefG2	*	*clefG2	*	*clefF4	*	*clefG2	*	*clefG2	*
*ITrd5c9	*	*ITrd5c9	*	*	*	*ITrd1c2	*	*ITrd1c2	*
*k[b-e-a-]	*	*k[b-e-a-]	*	*k[a-b-e-]	*	*k[b-e-a-]	*	*k[b-e-a-]	*
*E-:	*	*E-:	*	*E-:	*	*E-:	*	*E-:	*
*M6/8	*	*M6/8	*	*M6/8	*	*M6/8	*	*M6/8	*
=1	=1	=1	=1	=1	=1	=1	=1	=1	=1
4G/	.	4e-\	.	8EE-/L	.	4g/	.	4ee-\	.
.	.	.	.	8GG/	.	.	.	.	.
8G/	.	8e-\	.	8BB-/J	.	8g/	.	8ee-\	.
*	*	*tremolo	*	*	*	*	*	*	*
8G/L	.	8e-\L	.	4EE-/	.	8g/L	.	8ee-\L	.
8G/	.	8e-\	.	.	.	8g/	.	8ee-\	.
8G/J	.	8e-\J	.	8r	.	8g/J	.	8ee-\J	.
*	*	*Xtremolo	*	*	*	*	*	*	*
=2	=2	=2	=2	=2	=2	=2	=2	=2	=2
!	!	!	!	!LO:TX:t=P:problem=mixed beam	!	!	!	!	!
4E-/	.	4g\	.	8EE-/L	.	4b-\	.	4gg\	.
.	.	.	.	16E-\L	.	.	.	.	.
.	.	.	.	16D\J	.	.	.	.	.
8G/	.	8e-\	.	8E-\J	.	8g\	.	8ee-\	.
!	!	!	!	!LO:TX:t=P:problem=mixed beam	!	!	!	!	!
4E-/	.	4g\	.	8EE-/L	.	4b-\	.	4gg\	.
.	.	.	.	16E-\L	.	.	.	.	.
.	.	.	.	16D\J	.	.	.	.	.
8G/	.	8e-\	.	8E-\J	.	8g\	.	8ee-\	.
=3	=3	=3	=3	=3	=3	=3	=3	=3	=3
4B-/	.	4f\	.	8BB-/L	.	4dd\	.	4ff\	.
.	.	.	.	8D/	.	.	.	.	.
8B-/	.	8f\	.	8F/J	.	8dd\	.	8ff\	.
*tremolo	*	*tremolo	*	*	*	*	*	*	*
8B-/L	.	8f\L	.	4BB-/	.	8dd\L	.	8ff\L	.
8B-/	.	8f\	.	.	.	8dd\	.	8ff\	.
8B-/J	.	8f\J	.	8r	.	8dd\J	.	8ff\J	.
*Xtremolo	*	*Xtremolo	*	*	*	*	*	*	*
=4	=4	=4	=4	=4	=4	=4	=4	=4	=4
!	!	!	!	!LO:TX:t=P:problem=mixed beam	!	!	!	!	!
4f\	.	4a-\	.	8BB-/L	.	4ff\	.	4aa-\	.
.	.	.	.	16B-\L	.	.	.	.	.
.	.	.	.	16An\J	.	.	.	.	.
8d\	.	8f\	.	8B-\J	.	8dd\	.	8ff\	.
!	!	!	!	!LO:TX:t=P:problem=mixed beam	!	!	!	!	!
4f\	.	4a-\	.	8BB-/L	.	4ff\	.	4aa-\	.
.	.	.	.	16B-\L	.	.	.	.	.
.	.	.	.	16A\J	.	.	.	.	.
8d\	.	8f\	.	8B-\J	.	8dd\	.	8ff\	.
=5	=5	=5	=5	=5	=5	=5	=5	=5	=5
4e-\	.	4g\	.	8E-\L	.	4b-\	.	4gg\	.
.	.	.	.	8G\	.	.	.	.	.
8e-\	.	8g\	.	8B-\J	.	8ee-\	.	8gg\	.
*	*	*tremolo	*	*	*	*	*	*	*
!	!	!	!	!	!	!	!	!LO:LB:g=original	!
8e-\L	.	8g\L	.	4E-\	.	8ee-\L	.	8gg\L	.
8e-\	.	8g\	.	.	.	8ee-\	.	8gg\	.
8e-\J	.	8g\J	.	8r	.	8ee-\J	.	8gg\J	.
*	*	*Xtremolo	*	*	*	*	*	*	*
=6	=6	=6	=6	=6	=6	=6	=6	=6	=6
!	!	!	!	!LO:TX:t=P:problem=mixed beam	!	!	!	!	!
4g\	.	4b-\	.	8EE-/L	.	4gg\	.	4bb-\	.
.	.	.	.	16E-\L	.	.	.	.	.
.	.	.	.	16D\J	.	.	.	.	.
8e-\	.	8g\	.	8E-\J	.	8ee-\	.	8gg\	.
!	!	!	!	!LO:LB:g=original	!	!	!	!	!
!	!	!	!	!LO:TX:t=P:problem=mixed beam	!	!	!	!	!
4g\	.	4b-\	.	8EE-/L	.	4gg\	.	4bb-\	.
.	.	.	.	16E-\L	.	.	.	.	.
.	.	.	.	16D\J	.	.	.	.	.
8e-\	.	8g\	.	8E-\J	.	8ee-\	.	8gg\	.
!	!	!	!	!	!	!LO:LB:g=original	!	!	!
=7	=7	=7	=7	=7	=7	=7	=7	=7	=7
8E-/L	.	8e-\L	.	8E-\L	.	8e-/L	.	8ee-\L	.
8G/	.	8g\	.	8G\	.	8g/	.	8gg\	.
8E-/J	.	8e-\J	.	8E-\J	.	8e-/J	.	8ee-\J	.
8E-/L	.	8e-\L	.	8E-\L	.	8e-/L	.	8ee-\L	.
8BB-/	.	8B-\	.	8BB-\	.	8B-/	.	8b-\	.
8E-/J	.	8e-\J	.	8E-\J	.	8e-/J	.	8ee-\J	.
=8	=8	=8	=8	=8	=8	=8	=8	=8	=8
8E-/L	.	8e-\L	.	8E-\L	.	8e-/L	.	8ee-\L	.
8G/	.	8g\	.	8G\	.	8g/	.	8gg\	.
8E-/J	.	8e-\J	.	8E-\J	.	8e-/J	.	8ee-\J	.
8E-/L	.	8e-\L	.	8E-\L	.	8e-/L	.	8ee-\L	.
8BB-/	.	8B-\	.	8BB-\	.	8B-/	.	8b-\	.
8E-/J	.	8e-\J	.	8E-\J	.	8e-/J	.	8ee-\J	.
=9	=9	=9	=9	=9	=9	=9	=9	=9	=9
8E-/L	.	8e-\L	.	8E-\L	.	8e-/L	.	8ee-\L	.
8G/	.	8g\	.	8G\	.	8g/	.	8gg\	.
8E-/J	.	8e-\J	.	8E-\J	.	8e-/J	.	8ee-\J	.
8E-/L	.	8e-\L	.	8E-\L	.	8e-/L	.	8ee-\L	.
8B-/	.	8B-\	.	8BB-\	.	8B-/	.	8b-\	.
8G/J	.	8g\J	.	8GG\J	.	8G/J	.	8g\J	.
=10	=10	=10	=10	=10	=10	=10	=10	=10	=10
8B-/L	.	8b-\L	.	8BB-/L	.	8B-/L	.	8b-\L	.
8G/	.	8g\	.	8GG/	.	8G/	.	8g\	.
8E-/J	.	8e-\J	.	8EE-/J	.	8E-/J	.	8e-\J	.
4BB-;/	.	4B-;/	.	4BBB-;/	.	4B-;/	.	4ryy	.
8r	.	8r	.	8r	.	8r	.	8r;	.
=11	=11	=11	=11	=11	=11	=11	=11	=11	=11
!	!	!	!	!	!LO:DY:a	!	!	!	!LO:DY:a
8B-/	.	4f\	.	4BB-/	p	8r	.	8b-\L	p
!	!	!	!	!	!	!	!LO:DY:a	!	!
8r	.	.	.	.	.	8b-\L	p	8dd\	.
4r	.	8r	.	8r	.	8dd\J	.	8ff\J	.
!	!	!LO:LB:g=original	!	!	!	!	!	!	!
.	.	8r	.	8BB-/L	.	4dd\	.	4ff\	.
!	!LO:DY:a	!	!	!	!	!	!	!	!
8B-/L	p	8f\L	.	16B-\L	.	.	.	.	.
.	.	.	.	16An\J	.	.	.	.	.
8B-/J	.	8f\J	.	8B-\J	.	8b-\	.	8dd\	.
!	!	!	!	!	!	!	!	!LO:LB:g=original	!
=12	=12	=12	=12	=12	=12	=12	=12	=12	=12
4f\	.	4f\	.	4F\	.	8r	.	8r	.
.	.	.	.	.	.	8a\L	.	8cc\L	.
4r	.	8r	.	8r	.	8cc\J	.	8ee-\J	.
!	!	!	!	!LO:TX:t=P:problem=mixed beam	!	!	!	!	!
.	.	8r	.	8FF/L	.	4cc\	.	4ee-\	.
!LO:LB:g=original	!	!	!	!	!	!	!	!	!
8f\L	.	8f\L	.	16F\L	.	.	.	.	.
.	.	.	.	16En\J	.	.	.	.	.
8f\J	.	8f\J	.	8F\J	.	8a\	.	8cc\	.
=13	=13	=13	=13	=13	=13	=13	=13	=13	=13
!	!	!	!	!	!	!LO:TX:t=P:problem=mixed beam	!	!	!
4B-/	.	4f\	.	4BB-/	.	8b-\L	.	8b-\L	.
.	.	.	.	.	.	8f/	.	8dd\	.
!	!	!	!	!	!	!LO:LB:g=original	!	!	!
8r	.	8r	.	8r	.	8b-/J	.	8ff\J	.
!	!	!	!	!LO:LB:g=original	!	!	!	!	!
!	!	!	!	!LO:TX:t=P:problem=mixed beam	!	!LO:LB:g=original	!	!	!
8r	.	8r	.	8BB-/L	.	4dd\	.	4ff\	.
8B-/L	.	8f\L	.	16B-\L	.	.	.	.	.
.	.	.	.	16An\J	.	.	.	.	.
8B-/J	.	8f\J	.	8B-\J	.	8b-\	.	8dd\	.
=14	=14	=14	=14	=14	=14	=14	=14	=14	=14
4f\	.	4f\	.	4F\	.	8r	.	8r	.
.	.	.	.	.	.	8a\L	.	8cc\L	.
4r	.	8r	.	8r	.	8cc\J	.	8ee-\J	.
!	!	!	!	!LO:TX:t=P:problem=mixed beam	!	!	!	!	!
.	.	8r	.	8FF/L	.	4cc\	.	4ee-\	.
8f\L	.	8f\L	.	16F\L	.	.	.	.	.
.	.	.	.	16En\J	.	.	.	.	.
!	!	!	!	!	!	!	!	!	!LO:DY:a
8f\J	.	8f\J	.	8F\J	.	8a\	.	8cc\	f
=15	=15	=15	=15	=15	=15	=15	=15	=15	=15
!	!	!	!	!	!LO:DY:a	!	!	!	!
4B-/	.	8f\	.	4BB-/	f	8r	.	8b-\L	.
!	!	!	!	!	!	!	!LO:DY:a	!	!
.	.	8r	.	.	.	8dd\L	f	8bb-\	.
8r	.	8r	.	8r	.	8dd\J	.	8bb-\J	.
*	*	*tremolo	*	*	*	*	*	*	*
!	!	!	!	!LO:TX:t=P:problem=mixed beam	!	!	!	!	!
4.e-\	.	8g\L	.	8EE-/L	.	4.ee-\	.	4.gg\	.
.	.	8g\	.	16E-X\L	.	.	.	.	.
.	.	.	.	16D\J	.	.	.	.	.
.	.	8g\J	.	8E-\J	.	.	.	.	.
*	*	*Xtremolo	*	*	*	*	*	*	*
=16	=16	=16	=16	=16	=16	=16	=16	=16	=16
4r	.	4r	.	4r	.	8dd\L	.	8bb-\L	.
.	.	.	.	.	.	8dd\	.	8bb-\	.
8r	.	8r	.	8r	.	8dd\J	.	8bb-\J	.
4.B-/	.	4.f\	.	8DD/L	.	4.dd\	.	4.ff\	.
.	.	.	.	16D/L	.	.	.	.	.
.	.	.	.	16C/J	.	.	.	.	.
.	.	.	.	8D/J	.	.	.	.	.
=17	=17	=17	=17	=17	=17	=17	=17	=17	=17
4r	.	4r	.	4r	.	8dd\L	.	8bb-\L	.
.	.	.	.	.	.	8dd\	.	8bb-\	.
8r	.	8r	.	8r	.	8dd\J	.	8bb-\J	.
4e-\	.	4g\	.	4E-\	.	8cc\L	.	8ee-\L	.
.	.	.	.	.	.	8ee-\	.	8gg\	.
8d\	.	8f\	.	8D\	.	8dd\J	.	8ff\J	.
=18	=18	=18	=18	=18	=18	=18	=18	=18	=18
!	!	!	!	!LO:TX:t=P:problem=mixed beam	!	!	!	!	!
8e-\L	.	8g\L	.	8E-\L	.	8cc\L	.	8ee-\L	.
8g\	.	8f\	.	8F\	.	8b-\	.	8dd\	.
8f\J	.	8f\J	.	8FF/J	.	8a\J	.	8cc\J	.
!	!	!	!	!	!	!LO:TX:t=P:problem=mixed beam	!	!	!
4B-/	.	4f\	.	8BB-\L	.	8b-\L	.	4b-\	.
.	.	.	.	8D\	.	8d/	.	.	.
8r	.	8r	.	8F\J	.	8f/J	.	8r	.
!	!	!	!	!	!	!LO:LB:g=original	!	!LO:LB:g=original	!
=19	=19	=19	=19	=19	=19	=19	=19	=19	=19
*	*	*	*	*	*	*tremolo	*	*	*
!	!	!	!	!	!	!	!LO:DY:a	!	!
4r	.	4r	.	4BB-/	.	8dd\L	p	8bb-\L	.
.	.	.	.	.	.	8dd\	.	8bb-\	.
8r	.	8r	.	8r	.	8dd\J	.	8bb-\J	.
*	*	*	*	*	*	*Xtremolo	*	*	*
!	!	!	!LO:DY:a	!LO:TX:t=P:problem=mixed beam	!	!	!	!	!
4.e-\	.	4.g\	p	8EE-/L	.	4.ee-\	.	4.gg\	.
.	.	.	.	16E-\L	.	.	.	.	.
.	.	.	.	16D\J	.	.	.	.	.
.	.	.	.	8E-\J	.	.	.	.	.
=20	=20	=20	=20	=20	=20	=20	=20	=20	=20
*	*	*	*	*	*	*tremolo	*	*	*
4r	.	4r	.	4r	.	8dd\L	.	8bb-\L	.
.	.	.	.	.	.	8dd\	.	8bb-\	.
8r	.	8r	.	8r	.	8dd\J	.	8bb-\J	.
*	*	*	*	*	*	*Xtremolo	*	*	*
!	!	!	!	!LO:LB:g=original	!	!	!	!	!
!	!	!	!	!LO:TX:t=P:problem=mixed beam	!	!	!	!	!
4.B-/	.	4.f\	.	8DD/L	.	4.dd\	.	4.ff\	.
.	.	.	.	16D\L	.	.	.	.	.
.	.	.	.	16C\J	.	.	.	.	.
.	.	.	.	8D\J	.	.	.	.	.
!	!	!	!	!	!	!LO:LB:g=original	!	!	!
=21	=21	=21	=21	=21	=21	=21	=21	=21	=21
*	*	*	*	*	*	*tremolo	*	*	*
!	!	!	!	!	!	!	!LO:DY:a	!	!
4r	.	4r	.	4r	.	8dd\L	f	8bb-\L	.
.	.	.	.	.	.	8dd\	.	8bb-\	.
8r	.	8r	.	8r	.	8dd\J	.	8bb-\J	.
*	*	*	*	*	*	*Xtremolo	*	*	*
!	!	!	!LO:DY:a	!	!	!	!	!	!
4e-\	.	4g\	f	4E-\	.	8cc\L	.	8ee-\L	.
.	.	.	.	.	.	8ee-\	.	8gg\	.
8d\	.	8f\	.	8D\	.	8dd\J	.	8ff\J	.
=22	=22	=22	=22	=22	=22	=22	=22	=22	=22
!	!	!	!	!LO:TX:t=P:problem=mixed beam	!	!	!	!	!
8e-\L	.	8g\L	.	8E-\L	.	8cc\L	.	8ee-\L	.
8f\	.	8f\	.	8F\	.	8b-\	.	8dd\	.
8f\J	.	8f\J	.	8FF/J	.	8f\J	.	8cc\J	.
4B-/	.	4f\	.	4BB-/	.	4d/	.	4b-\	.
8r	.	8r	.	8r	.	8r	.	8r	.
!	!	!LO:LB:g=original	!	!	!	!	!	!	!
=23:|!|:	=23:|!|:	=23:|!|:	=23:|!|:	=23:|!|:	=23:|!|:	=23:|!|:	=23:|!|:	=23:|!|:	=23:|!|:
*>B	*>B	*>B	*>B	*>B	*>B	*>B	*>B	*>B	*>B
!	!LO:DY:a	!	!LO:DY:a	!	!	!	!LO:DY:a	!	!LO:DY:a
4B-/	p	4f\	p	8AA-/L	.	4d/	p	4b-\	p
.	.	.	.	8D/	.	.	.	.	.
8B-/	.	8f\	.	8F/J	.	8d/	.	8b-\	.
*tremolo	*	*tremolo	*	*	*	*	*	*	*
8B-/L	.	8f\L	.	4AA-/	.	8d/L	.	8b-\L	.
8B-/	.	8f\	.	.	.	8d/	.	8b-\	.
8B-/J	.	8f\J	.	8r	.	8d/J	.	8b-\J	.
*Xtremolo	*	*Xtremolo	*	*	*	*	*	*	*
=24	=24	=24	=24	=24	=24	=24	=24	=24	=24
!	!	!	!	!LO:TX:t=P:problem=mixed beam	!	!	!	!	!
4B-/	.	4f\	.	8BB-/L	.	4f/	.	4dd\	.
.	.	.	.	16B-\L	.	.	.	.	.
.	.	.	.	16A-\J	.	.	.	.	.
8r	.	8r	.	8B-\J	.	8d/	.	8b-\	.
!	!	!	!	!LO:TX:t=P:problem=mixed beam	!	!	!	!	!
4B-/	.	4f\	.	8BB-/L	.	4f/	.	4dd\	.
.	.	.	.	16B-\L	.	.	.	.	.
.	.	.	.	16A-\J	.	.	.	.	.
8r	.	8r	.	8B-\J	.	8d/	.	8b-\	.
!LO:LB:g=original	!	!	!	!	!	!	!	!	!
=25	=25	=25	=25	=25	=25	=25	=25	=25	=25
4f\	.	4f\	.	8F\L	.	4a\	.	4cc\	.
.	.	.	.	8An\	.	.	.	.	.
8f\	.	8f\	.	8c\J	.	8a\	.	8cc\	.
*tremolo	*	*tremolo	*	*	*	*	*	*	*
8f\L	.	8f\L	.	4F\	.	8an\L	.	8cc\L	.
8f\	.	8f\	.	.	.	8a\	.	8cc\	.
8f\J	.	8f\J	.	8r	.	8a\J	.	8cc\J	.
*Xtremolo	*	*Xtremolo	*	*	*	*	*	*	*
!	!	!	!	!	!	!	!	!LO:LB:g=original	!
=26	=26	=26	=26	=26	=26	=26	=26	=26	=26
!	!	!	!	!LO:TX:t=P:problem=mixed beam	!	!	!	!	!
4f\	.	4f\	.	8FF/L	.	4cc\	.	4ee-\	.
.	.	.	.	16F\L	.	.	.	.	.
.	.	.	.	16En\J	.	.	.	.	.
!	!	!	!	!	!	!LO:SIC:v:s=8an\	!	!	!
8r	.	8r	.	8F\J	.	8a-\	.	8cc\	.
!	!	!	!	!LO:TX:t=P:problem=mixed beam	!	!	!	!	!
4f\	.	4f\	.	8FF/L	.	4cc\	.	4ee-\	.
.	.	.	.	16F\L	.	.	.	.	.
.	.	.	.	16E\J	.	.	.	.	.
!	!	!	!	!	!	!LO:SIC:v:s=8an\	!	!	!
8r	.	8r	.	8F\J	.	8a-\	.	8cc\	.
!	!	!	!	!LO:LB:g=original	!	!LO:LB:g=original	!	!	!
=27	=27	=27	=27	=27	=27	=27	=27	=27	=27
!	!LO:DY:a	!	!LO:DY:a	!	!	!	!LO:DY:a:t=fo	!	!LO:DY:a
4B-/	f	4f\	f	8BB-\L	.	4a-\	f	4dd\	f
.	.	.	.	8D\	.	.	.	.	.
8B-/	.	8f\	.	8F\J	.	8a-\	.	8dd\	.
*tremolo	*	*tremolo	*	*	*	*	*	*	*
8B-/L	.	8f\L	.	4BB-/	.	8a-\L	.	8dd\L	.
8B-/	.	8f\	.	.	.	8a-\	.	8dd\	.
8B-/J	.	8f\J	.	8r	.	8a-\J	.	8dd\J	.
*Xtremolo	*	*Xtremolo	*	*	*	*	*	*	*
=28	=28	=28	=28	=28	=28	=28	=28	=28	=28
!	!	!	!	!LO:TX:t=P:problem=mixed beam	!	!	!	!	!
4B-/	.	4f\	.	8BB-/L	.	4a-/	.	4ff\	.
.	.	.	.	16B-\L	.	.	.	.	.
.	.	.	.	16A-\J	.	.	.	.	.
8r	.	8r	.	8B-\J	.	8f/	.	8dd\	.
!	!	!	!	!LO:TX:t=P:problem=mixed beam	!	!	!	!	!
4B-/	.	8f\	.	8BB-/L	.	4a-/	.	4ff\	.
.	.	4r	.	16B-\L	.	.	.	.	.
.	.	.	.	16A-\J	.	.	.	.	.
8r	.	.	.	8B-\J	.	8f/	.	8dd\	.
=29	=29	=29	=29	=29	=29	=29	=29	=29	=29
!	!LO:DY:a	!	!	!	!LO:DY:a	!	!LO:DY:a	!	!LO:DY:a
4e-\	p	4g\	.	8E-\L	p	4g\	p	4ee-\	p
.	.	.	.	8G\	.	.	.	.	.
8e-\	.	8g\	.	8B-\J	.	8g\	.	8ee-\	.
*tremolo	*	*tremolo	*	*	*	*tremolo	*	*	*
8e-\L	.	8g\L	.	4E-\	.	8g\L	.	8ee-\L	.
8e-\	.	8g\	.	.	.	8g\	.	8ee-\	.
8e-\J	.	8g\J	.	8r	.	8g\J	.	8ee-\J	.
*Xtremolo	*	*Xtremolo	*	*	*	*Xtremolo	*	*	*
=30	=30	=30	=30	=30	=30	=30	=30	=30	=30
!	!	!	!	!LO:TX:t=P:problem=mixed beam	!	!	!	!	!
4e-\	.	4g\	.	8EE-/L	.	4b-\	.	4gg\	.
.	.	.	.	16E-\L	.	.	.	.	.
.	.	.	.	16D\J	.	.	.	.	.
8r	.	8r	.	8E-\J	.	8g\	.	8ee-\	.
!	!	!	!	!LO:TX:t=P:problem=mixed beam	!	!	!	!	!
4e-\	.	4g\	.	8EE-/L	.	4b-\	.	4gg\	.
.	.	.	.	16E-\L	.	.	.	.	.
.	.	.	.	16D\J	.	.	.	.	.
8r	.	8r	.	8E-\J	.	8g\	.	8ee-\	.
=31	=31	=31	=31	=31	=31	=31	=31	=31	=31
!	!LO:DY:a	!	!	!	!LO:DY:a	!	!LO:DY:a	!	!
4g\	f	4b-\	.	8C\L	f	4cc\	f	4eeX\	.
.	.	.	.	8E-\	.	.	.	.	.
8g\	.	8b-\	.	8G\J	.	8cc\	.	8ee\	.
*tremolo	*	*tremolo	*	*	*	*	*	*	*
8g\L	.	8b-\L	.	4C/	.	8cc\L	.	8ee\L	.
8g\	.	8b-\	.	.	.	8cc\	.	8ee\	.
8g\J	.	8b-\J	.	8r	.	8cc\J	.	8ee\J	.
*Xtremolo	*	*Xtremolo	*	*	*	*	*	*	*
=32	=32	=32	=32	=32	=32	=32	=32	=32	=32
!	!	!	!	!LO:TX:t=P:problem=mixed beam	!	!	!	!	!
4g\	.	4b-\	.	8C/L	.	4b-\	.	4gg\	.
.	.	.	.	16c\L	.	.	.	.	.
.	.	.	.	16Bn\J	.	.	.	.	.
!	!	!	!	!	!	!	!	!LO:SIC:v:s=8ee\	!
8r	.	8r	.	8c\J	.	8g\	.	8ee-\	.
!	!	!	!	!LO:TX:t=P:problem=mixed beam	!	!	!	!	!
4g\	.	4b-\	.	8C/L	.	4b-\	.	4gg\	.
.	.	.	.	16c\L	.	.	.	.	.
.	.	.	.	16B\J	.	.	.	.	.
!	!	!	!	!	!	!	!	!LO:SIC:v:s=8ee\	!
8r	.	8r	.	8c\J	.	8g\	.	8ee-\	.
!	!	!	!	!LO:LB:g=original	!	!LO:LB:g=original	!	!	!
=33	=33	=33	=33	=33	=33	=33	=33	=33	=33
!	!	!	!	!	!	!	!LO:DY:a	!	!
4f\	.	4a-\	.	4F\	.	4a-\	p	8ff\L	.
.	.	.	.	.	.	.	.	8aa-\	.
8r	.	8r	.	4r	.	4r	.	8gg\J	.
4r	.	4r	.	.	.	.	.	4ff\	.
.	.	.	.	8A-X\L	.	8cc\L	.	.	.
8r	.	8ryy	.	8F\J	.	8a-\J	.	8r	.
!	!	!	!	!	!	!	!	!LO:LB:g=original	!
=34	=34	=34	=34	=34	=34	=34	=34	=34	=34
4e-\	.	4g\	.	8G\L	.	4b-\	.	8b-\L	.
.	.	.	.	8E-\J	.	.	.	8gg\	.
8r	.	8r	.	8r	.	8r	.	8ff\J	.
4r	.	4r	.	8r	.	8r	.	4ee-X\	.
.	.	.	.	8G\L	.	8b-\L	.	.	.
8r	.	8r	.	8E-\J	.	8g\J	.	8r	.
=35	=35	=35	=35	=35	=35	=35	=35	=35	=35
4B-/	.	4f\	.	8F\L	.	4a-\	.	8a-\L	.
.	.	.	.	8D\J	.	.	.	8ff\	.
8r	.	8r	.	8r	.	8r	.	8ee-\J	.
4r	.	4r	.	8r	.	8r	.	4dd\	.
!	!	!	!	!LO:TX:t=P:problem=mixed beam	!	!	!	!	!
.	.	.	.	8F\L	.	8a-/L	.	.	.
8r	.	8r	.	8BB-/J	.	8f/J	.	8r	.
=36	=36	=36	=36	=36	=36	=36	=36	=36	=36
!	!	!	!	!	!LO:DY:a	!	!LO:DY:a	!	!LO:DY:a
8E-/L	.	8e-\L	.	8E-\L	f	8e-/L	f	8ee-\L	f
8G/	.	8g\	.	8G\	.	8g/	.	8gg\	.
8E-/J	.	8e-\J	.	8E-\J	.	8e-/J	.	8ee-\J	.
8E-/L	.	8e-\L	.	8E-\L	.	8e-/L	.	8ee-\L	.
8BB-/	.	8B-\	.	8BB-\	.	8B-/	.	8b-\	.
8E-/J	.	8e-\J	.	8E-\J	.	8e-/J	.	8ee-\J	.
!	!	!LO:LB:g=original	!	!	!	!	!	!	!
=37	=37	=37	=37	=37	=37	=37	=37	=37	=37
8E-/L	.	8e-\L	.	8E-\L	.	8e-/L	.	8ee-\L	.
8G/	.	8g\	.	8G\	.	8g/	.	8gg\	.
8E-/J	.	8e-\J	.	8E-\J	.	8e-/J	.	8ee-\J	.
8E-/L	.	8e-\L	.	8E-\L	.	8e-/L	.	8ee-\L	.
8BB-/	.	8B-\	.	8BB-\	.	8B-/	.	8b-\	.
8E-/J	.	8e-\J	.	8E-\J	.	8e-/J	.	8ee-\J	.
!	!	!	!	!LO:LB:g=original	!	!	!	!	!
=38	=38	=38	=38	=38	=38	=38	=38	=38	=38
8E-/L	.	8e-\L	.	8E-\L	.	8e-/L	.	8ee-\L	.
8G/	.	8g\	.	8G\	.	8g/	.	8gg\	.
8E-/J	.	8e-\J	.	8E-\J	.	8e-/J	.	8ee-\J	.
!	!	!LO:TX:t=P:problem=mixed beam	!	!	!	!	!	!	!
8E-/L	.	8e-\L	.	8E-\L	.	8e-/L	.	8ee-\L	.
8BB-/	.	8B-/	.	8BB-\	.	8B-/	.	8b-\	.
8G/J	.	8e-/J	.	8GG\J	.	8G/J	.	8g\J	.
=39	=39	=39	=39	=39	=39	=39	=39	=39	=39
8B-/L	.	8b-\L	.	8BB-/L	.	8B-/L	.	8b-\L	.
8G/	.	8g\	.	8GG/	.	8G/	.	8g\	.
8E-/J	.	8e-\J	.	8EE-/J	.	8E-/J	.	8e-\J	.
!LO:LB:g=original	!	!	!	!	!	!	!	!	!
4BB-;/	.	4B-;/	.	4BBB-;/	.	4B-;/	.	4B-;/	.
8r	.	8r	.	8r	.	8r	.	8r	.
!	!	!	!	!	!	!LO:LB:g=original	!	!	!
=40	=40	=40	=40	=40	=40	=40	=40	=40	=40
!	!LO:DY:a:t=pia	!	!LO:DY:a	!	!	!	!	!	!LO:DY:a
4G/	p	4e-\	p	4EE-/	.	8r	.	8e-/L	p
!	!	!	!	!	!	!	!LO:DY:a	!	!
.	.	.	.	.	.	8e-/L	p	8g/	.
8r	.	8r	.	8r	.	8g/J	.	8b-/J	.
!	!	!	!	!LO:TX:t=P:problem=mixed beam	!	!	!	!	!
8r	.	8r	.	8EE-/L	.	4g/	.	4b-\	.
8g\L	.	8b-\L	.	16E-\L	.	.	.	.	.
.	.	.	.	16D\J	.	.	.	.	.
8e-\J	.	8g\J	.	8E-\J	.	8e-/	.	8g\	.
=41	=41	=41	=41	=41	=41	=41	=41	=41	=41
4B-/	.	4f\	.	4BB-/	.	8r	.	8r	.
.	.	.	.	.	.	8d/L	.	8f/L	.
8r	.	8r	.	8r	.	8f/J	.	8a-/J	.
8r	.	8r	.	8BBB-/L	.	4f/	.	4a-/	.
!LO:TX:t=P:problem=mixed beam	!	!	!	!	!	!	!	!	!
8f\L	.	8a-\L	.	16BB-/L	.	.	.	.	.
.	.	.	.	16AAn/J	.	.	.	.	.
8B-/J	.	8f\J	.	8BB-/J	.	8d/	.	8f/	.
!	!	!	!	!	!	!	!	!LO:LB:g=original	!
=42	=42	=42	=42	=42	=42	=42	=42	=42	=42
4G/	.	4e-\	.	4EE-/	.	8e-/L	.	8e-/L	.
.	.	.	.	.	.	8B-/	.	8g/	.
8r	.	8r	.	8r	.	8g/J	.	8b-/J	.
!	!	!	!	!LO:TX:t=P:problem=mixed beam	!	!	!	!	!
8r	.	8r	.	8EE-/L	.	4g/	.	4b-/	.
8g\L	.	8b-\L	.	16E-\L	.	.	.	.	.
.	.	.	.	16D\J	.	.	.	.	.
8e-\J	.	8g\J	.	8E-\J	.	8e-/	.	8g/	.
=43	=43	=43	=43	=43	=43	=43	=43	=43	=43
4B-/	.	4f\	.	4BB-/	.	8r	.	8r	.
.	.	.	.	.	.	8d/L	.	8f/L	.
8r	.	8r	.	8r	.	8f/J	.	8a-/J	.
!	!	!	!	!LO:TX:t=P:problem=mixed beam	!	!	!	!	!
8r	.	8r	.	8BB-/L	.	4f/	.	4a-/	.
!LO:TX:t=P:problem=mixed beam	!	!	!	!	!	!	!	!	!
8f\L	.	8a-\L	.	16B-\L	.	.	.	.	.
.	.	.	.	16A-\J	.	.	.	.	.
8B-/J	.	8f\J	.	8B-\J	.	8d/	.	8f/	.
!	!	!	!	!LO:LB:g=original	!	!	!	!	!
=44	=44	=44	=44	=44	=44	=44	=44	=44	=44
*	*	*	*	*	*	*tremolo	*	*	*
!	!	!	!	!	!	!	!LO:DY:a	!	!
4G/	.	4e-\	.	4E-\	.	8cc\L	f	8ee-\L	.
.	.	.	.	.	.	8cc\	.	8ee-\	.
8r	.	8r	.	8r	.	8cc\J	.	8ee-\J	.
*	*	*	*	*	*	*Xtremolo	*	*	*
!	!	!	!	!LO:TX:t=P:problem=mixed beam	!	!	!	!	!
4.E-/	.	4.e-\	.	8AA-/L	.	4.a-\	.	4.cc\	.
.	.	.	.	16A-\L	.	.	.	.	.
.	.	.	.	16G\J	.	.	.	.	.
.	.	.	.	8A-\J	.	.	.	.	.
=45	=45	=45	=45	=45	=45	=45	=45	=45	=45
*	*	*	*	*	*	*tremolo	*	*	*
4r	.	4r	.	4r	.	8b-\L	.	8ee-\L	.
.	.	.	.	.	.	8b-\	.	8ee-\	.
8r	.	8r	.	8r	.	8b-\J	.	8ee-\J	.
*	*	*	*	*	*	*Xtremolo	*	*	*
!	!	!	!	!LO:TX:t=P:problem=mixed beam	!	!	!	!	!
4.E-/	.	4.e-\	.	8GG/L	.	4.g\	.	4.b-\	.
.	.	.	.	16G\L	.	.	.	.	.
.	.	.	.	16F\J	.	.	.	.	.
.	.	.	.	8G\J	.	.	.	.	.
=46	=46	=46	=46	=46	=46	=46	=46	=46	=46
*	*	*	*	*	*	*tremolo	*	*tremolo	*
4r	.	4r	.	4r	.	8cc\L	.	8ee-\L	.
.	.	.	.	.	.	8cc\	.	8ee-\	.
8r	.	8r	.	8r	.	8cc\J	.	8ee-\J	.
*	*	*	*	*	*	*Xtremolo	*	*Xtremolo	*
4f\	.	4a-\	.	4AA-/	.	8a-\L	.	8cc\L	.
.	.	.	.	.	.	8cc\	.	8aa-\	.
8e-\	.	8g\	.	8E-\	.	8b-\J	.	8gg\J	.
!	!	!	!	!	!	!LO:LB:g=original	!	!	!
=47	=47	=47	=47	=47	=47	=47	=47	=47	=47
!	!	!	!	!LO:TX:t=P:problem=mixed beam	!	!	!	!	!
8f\L	.	8a-\L	.	8A-\L	.	8a-\L	.	8ff\L	.
8e-\	.	8g\	.	8B-\	.	8g\	.	8ee-\	.
8B-\J	.	8f\J	.	8BB-/J	.	8f\J	.	8dd\J	.
4G/	.	4e-\	.	8E-\L	.	4g\	.	4ee-\	.
.	.	.	.	8G\	.	.	.	.	.
8r	.	8r	.	8B-\J	.	8r	.	8r	.
=48	=48	=48	=48	=48	=48	=48	=48	=48	=48
*	*	*	*	*	*	*	*	*tremolo	*
!	!LO:DY:a	!	!	!	!	!	!LO:DY:a	!	!LO:DY:a
4r	p	4r	.	4E-\	.	8g\L	p	8ee-\L	p
.	.	.	.	.	.	8g\	.	8ee-\	.
8r	.	8r	.	8r	.	8g\J	.	8ee-\J	.
*	*	*	*	*	*	*	*	*Xtremolo	*
!	!	!LO:N:vis=4	!	!LO:TX:t=P:problem=mixed beam	!	!	!	!	!
4.E-/	.	4.e-\	.	8AA-/L	.	4.a-\	.	4.cc\	.
.	.	.	.	16A-\L	.	.	.	.	.
.	.	.	.	16G\J	.	.	.	.	.
.	.	.	.	8A-\J	.	.	.	.	.
!	!	!	!	!LO:LB:g=original	!	!	!	!	!
=49	=49	=49	=49	=49	=49	=49	=49	=49	=49
*	*	*	*	*	*	*	*	*tremolo	*
4r	.	4r	.	4r	.	8cc\L	.	8ee-\L	.
.	.	.	.	.	.	8cc\	.	8ee-\	.
8r	.	8r	.	8r	.	8cc\J	.	8ee-\J	.
*	*	*	*	*	*	*	*	*Xtremolo	*
!	!	!	!	!LO:TX:t=P:problem=mixed beam	!	!	!	!	!
4.E-/	.	4.e-\	.	8GG/L	.	4.g\	.	4b-\	.
.	.	.	.	16G\L	.	.	.	.	.
.	.	.	.	16F\J	.	.	.	.	.
.	.	.	.	8G\J	.	.	.	8r	.
!	!	!LO:LB:g=original	!	!	!	!	!	!	!
=50	=50	=50	=50	=50	=50	=50	=50	=50	=50
*	*	*	*	*	*	*	*	*tremolo	*
!	!LO:DY:a:t=fo	!	!	!	!	!	!LO:DY:a	!	!LO:DY:a
4r	f	4r	.	4r	.	8g\L	f	8ee-\L	f
.	.	.	.	.	.	8g\	.	8ee-\	.
8r	.	8r	.	8r	.	8g\J	.	8ee-\J	.
*	*	*	*	*	*	*	*	*Xtremolo	*
8e-\L	.	8e-\L	.	4AA-/	.	8a-\L	.	8cc\L	.
8f\	.	8a-\	.	.	.	8cc\	.	8aa-\	.
8e-\J	.	8g\J	.	8E-\	.	8b-\J	.	8gg\J	.
=51	=51	=51	=51	=51	=51	=51	=51	=51	=51
!	!	!	!	!LO:TX:t=P:problem=mixed beam	!	!	!	!	!
8f\L	.	8a-\L	.	8A-\L	.	8a-\L	.	8ff\L	.
8e-\	.	8g\	.	8B-\	.	8g\	.	8ee-\	.
8B-\J	.	8f\J	.	8BB-/J	.	8f\J	.	8dd\J	.
!LO:LB:g=original	!	!	!	!LO:TX:t=P:problem=mixed beam	!	!	!	!	!
4G/	.	4e-\	.	8E-\L	.	4g/	.	4ee-\	.
.	.	.	.	8GG/	.	.	.	.	.
8B-/	.	8f\	.	8BB-/J	.	16a-/LL	.	16ff\LL	.
.	.	.	.	.	.	16f/JJ	.	16dd\JJ	.
!	!	!	!	!	!	!	!	!LO:LB:g=original	!
=52	=52	=52	=52	=52	=52	=52	=52	=52	=52
4G/	.	4e-\	.	4E-\	.	4g/	.	4ee-\	.
8r	.	8r	.	8r	.	8r	.	8r	.
4r	.	4r	.	4r	.	4r	.	4r	.
!LO:TX:b:i:t=Finis	!	!LO:TX:a:i:t=Finis	!	!LO:TX:b:i:t=Finis	!	!	!	!	!
8r	.	8r	.	8r	.	8r	.	8r	.
==	==	==	==	==	==	==	==	==	==
*-	*-	*-	*-	*-	*-	*-	*-	*-	*-
!!!system-decoration: [(s1,s2,s3,s4,s5)]
!!!RDF**kern: > = above
!!!RDF**kern: < = below
!!!AIN: 2 clars 2 empty 1 fagot
!!!ENC: Anastazja Marusiak
!!!END: 2021-06-17
!!!ENC: Marta Lawrence
!!!END: 2021-06-28
